X: 83
M:4/4
L:1/8
K:D
fafd fafd|egec egec|fafd fafd|egec dcBA|
de (3fga fdBd|cd (3efg ecAc|dfec dcBA|FABc dBAF||

